images/content/semiregular-convex-uniform/heptagonal-prism.svg

<?xml version="1.0" encoding="UTF-8"?>
<svg xmlns="http://www.w3.org/2000/svg" xmlns:xlink="http://www.w3.org/1999/xlink" width="237.69pt" height="199.94pt" viewBox="0 0 237.69 199.94" version="1.2">
<g id="surface1">
<path style="fill-rule:nonzero;fill:rgb(73.242188%,49.388123%,56.639099%);fill-opacity:1;stroke-width:5;stroke-linecap:round;stroke-linejoin:round;stroke:rgb(0%,0%,0%);stroke-opacity:1;stroke-miterlimit:10;" d="M 754.420148 1784.53672 L 1423.885891 1843.402456 L 1412.660332 1289.947194 " transform="matrix(0.0998697,0,0,-0.0998697,0,199.779826)"/>
<path style="fill-rule:nonzero;fill:rgb(73.242188%,49.388123%,56.639099%);fill-opacity:1;stroke-width:5;stroke-linecap:round;stroke-linejoin:round;stroke:rgb(0%,0%,0%);stroke-opacity:1;stroke-miterlimit:10;" d="M 1412.660332 1289.947194 L 786.727855 1226.192277 L 754.420148 1784.53672 " transform="matrix(0.0998697,0,0,-0.0998697,0,199.779826)"/>
<path style="fill-rule:nonzero;fill:rgb(49.510193%,30.589294%,55.271912%);fill-opacity:1;stroke-width:5;stroke-linecap:round;stroke-linejoin:round;stroke:rgb(0%,0%,0%);stroke-opacity:1;stroke-miterlimit:10;" d="M 1923.951299 1040.051387 L 1412.660332 1289.947194 L 1423.885891 1843.402456 " transform="matrix(0.0998697,0,0,-0.0998697,0,199.779826)"/>
<path style=" stroke:none;fill-rule:nonzero;fill:rgb(66.40625%,74.021912%,90.625%);fill-opacity:1;" d="M 141.082031 70.953125 L 78.570312 77.320312 L 195.550781 140.113281 "/>
<path style="fill:none;stroke-width:5;stroke-linecap:round;stroke-linejoin:round;stroke:rgb(0%,0%,0%);stroke-opacity:1;stroke-miterlimit:10;" d="M 1412.660332 1289.947194 L 786.727855 1226.192277 " transform="matrix(0.0998697,0,0,-0.0998697,0,199.779826)"/>
<path style="fill-rule:nonzero;fill:rgb(66.40625%,74.021912%,90.625%);fill-opacity:1;stroke-width:5;stroke-linecap:round;stroke-linejoin:round;stroke:rgb(0%,0%,0%);stroke-opacity:1;stroke-miterlimit:10;" d="M 1958.058224 597.443631 L 1923.951299 1040.051387 L 1412.660332 1289.947194 " transform="matrix(0.0998697,0,0,-0.0998697,0,199.779826)"/>
<path style="fill-rule:nonzero;fill:rgb(93.943787%,68.554688%,52.734375%);fill-opacity:1;stroke-width:5;stroke-linecap:round;stroke-linejoin:round;stroke:rgb(0%,0%,0%);stroke-opacity:1;stroke-miterlimit:10;" d="M 354.054914 1457.743878 L 754.420148 1784.53672 L 786.727855 1226.192277 " transform="matrix(0.0998697,0,0,-0.0998697,0,199.779826)"/>
<path style="fill-rule:nonzero;fill:rgb(93.943787%,68.554688%,52.734375%);fill-opacity:1;stroke-width:5;stroke-linecap:round;stroke-linejoin:round;stroke:rgb(0%,0%,0%);stroke-opacity:1;stroke-miterlimit:10;" d="M 786.727855 1226.192277 L 417.496924 875.149098 L 354.054914 1457.743878 " transform="matrix(0.0998697,0,0,-0.0998697,0,199.779826)"/>
<path style=" stroke:none;fill-rule:nonzero;fill:rgb(66.40625%,74.021912%,90.625%);fill-opacity:1;" d="M 78.570312 77.320312 L 41.695312 112.378906 L 195.550781 140.113281 "/>
<path style="fill:none;stroke-width:5;stroke-linecap:round;stroke-linejoin:round;stroke:rgb(0%,0%,0%);stroke-opacity:1;stroke-miterlimit:10;" d="M 786.727855 1226.192277 L 417.496924 875.149098 " transform="matrix(0.0998697,0,0,-0.0998697,0,199.779826)"/>
<path style="fill-rule:nonzero;fill:rgb(49.510193%,30.589294%,55.271912%);fill-opacity:1;stroke-width:5;stroke-linecap:round;stroke-linejoin:round;stroke:rgb(0%,0%,0%);stroke-opacity:1;stroke-miterlimit:10;" d="M 1423.885891 1843.402456 L 1973.312468 1611.694401 L 1923.951299 1040.051387 " transform="matrix(0.0998697,0,0,-0.0998697,0,199.779826)"/>
<path style="fill-rule:nonzero;fill:rgb(18.896484%,18.896484%,40.501404%);fill-opacity:1;stroke-width:5;stroke-linecap:round;stroke-linejoin:round;stroke:rgb(0%,0%,0%);stroke-opacity:1;stroke-miterlimit:10;" d="M 1958.058224 597.443631 L 1923.951299 1040.051387 L 1973.312468 1611.694401 " transform="matrix(0.0998697,0,0,-0.0998697,0,199.779826)"/>
<path style="fill-rule:nonzero;fill:rgb(18.896484%,18.896484%,40.501404%);fill-opacity:1;stroke-width:5;stroke-linecap:round;stroke-linejoin:round;stroke:rgb(0%,0%,0%);stroke-opacity:1;stroke-miterlimit:10;" d="M 1973.312468 1611.694401 L 2015.711444 1196.466058 L 1958.058224 597.443631 " transform="matrix(0.0998697,0,0,-0.0998697,0,199.779826)"/>
<path style=" stroke:none;fill-rule:nonzero;fill:rgb(64.451599%,76.367188%,93.554688%);fill-opacity:1;" d="M 142.203125 15.679688 L 75.34375 21.558594 L 201.308594 80.289062 "/>
<path style="fill:none;stroke-width:5;stroke-linecap:round;stroke-linejoin:round;stroke:rgb(0%,0%,0%);stroke-opacity:1;stroke-miterlimit:10;" d="M 1423.885891 1843.402456 L 754.420148 1784.53672 " transform="matrix(0.0998697,0,0,-0.0998697,0,199.779826)"/>
<path style="fill-rule:nonzero;fill:rgb(64.451599%,76.367188%,93.554688%);fill-opacity:1;stroke-width:5;stroke-linecap:round;stroke-linejoin:round;stroke:rgb(0%,0%,0%);stroke-opacity:1;stroke-miterlimit:10;" d="M 2015.711444 1196.466058 L 1973.312468 1611.694401 L 1423.885891 1843.402456 " transform="matrix(0.0998697,0,0,-0.0998697,0,199.779826)"/>
<path style=" stroke:none;fill-rule:nonzero;fill:rgb(64.451599%,76.367188%,93.554688%);fill-opacity:1;" d="M 75.34375 21.558594 L 35.359375 54.195312 L 201.308594 80.289062 "/>
<path style="fill:none;stroke-width:5;stroke-linecap:round;stroke-linejoin:round;stroke:rgb(0%,0%,0%);stroke-opacity:1;stroke-miterlimit:10;" d="M 754.420148 1784.53672 L 354.054914 1457.743878 " transform="matrix(0.0998697,0,0,-0.0998697,0,199.779826)"/>
<path style="fill-rule:nonzero;fill:rgb(13.792419%,13.792419%,37.597656%);fill-opacity:1;stroke-width:5;stroke-linecap:round;stroke-linejoin:round;stroke:rgb(0%,0%,0%);stroke-opacity:1;stroke-miterlimit:10;" d="M 581.147582 1044.823227 L 354.054914 1457.743878 L 417.496924 875.149098 " transform="matrix(0.0998697,0,0,-0.0998697,0,199.779826)"/>
<path style=" stroke:none;fill-rule:nonzero;fill:rgb(66.40625%,74.021912%,90.625%);fill-opacity:1;" d="M 41.695312 112.378906 L 63.230469 156.097656 L 195.550781 140.113281 "/>
<path style="fill:none;stroke-width:5;stroke-linecap:round;stroke-linejoin:round;stroke:rgb(0%,0%,0%);stroke-opacity:1;stroke-miterlimit:10;" d="M 417.496924 875.149098 L 633.129352 437.39141 " transform="matrix(0.0998697,0,0,-0.0998697,0,199.779826)"/>
<path style="fill-rule:nonzero;fill:rgb(13.792419%,13.792419%,37.597656%);fill-opacity:1;stroke-width:5;stroke-linecap:round;stroke-linejoin:round;stroke:rgb(0%,0%,0%);stroke-opacity:1;stroke-miterlimit:10;" d="M 417.496924 875.149098 L 633.129352 437.39141 L 581.147582 1044.823227 " transform="matrix(0.0998697,0,0,-0.0998697,0,199.779826)"/>
<path style="fill-rule:nonzero;fill:rgb(66.40625%,74.021912%,90.625%);fill-opacity:1;stroke-width:5;stroke-linecap:round;stroke-linejoin:round;stroke:rgb(0%,0%,0%);stroke-opacity:1;stroke-miterlimit:10;" d="M 633.129352 437.39141 L 1368.9315 293.062793 L 1958.058224 597.443631 " transform="matrix(0.0998697,0,0,-0.0998697,0,199.779826)"/>
<path style="fill-rule:nonzero;fill:rgb(86.326599%,56.443787%,47.801208%);fill-opacity:1;stroke-width:5;stroke-linecap:round;stroke-linejoin:round;stroke:rgb(0%,0%,0%);stroke-opacity:1;stroke-miterlimit:10;" d="M 1368.9315 293.062793 L 1958.058224 597.443631 L 2015.711444 1196.466058 " transform="matrix(0.0998697,0,0,-0.0998697,0,199.779826)"/>
<path style=" stroke:none;fill-rule:nonzero;fill:rgb(64.451599%,76.367188%,93.554688%);fill-opacity:1;" d="M 35.359375 54.195312 L 58.039062 95.433594 L 201.308594 80.289062 "/>
<path style="fill:none;stroke-width:5;stroke-linecap:round;stroke-linejoin:round;stroke:rgb(0%,0%,0%);stroke-opacity:1;stroke-miterlimit:10;" d="M 354.054914 1457.743878 L 581.147582 1044.823227 " transform="matrix(0.0998697,0,0,-0.0998697,0,199.779826)"/>
<path style="fill-rule:nonzero;fill:rgb(59.568787%,34.301758%,50.389099%);fill-opacity:1;stroke-width:5;stroke-linecap:round;stroke-linejoin:round;stroke:rgb(0%,0%,0%);stroke-opacity:1;stroke-miterlimit:10;" d="M 1379.296563 907.300351 L 581.147582 1044.823227 L 633.129352 437.39141 " transform="matrix(0.0998697,0,0,-0.0998697,0,199.779826)"/>
<path style="fill-rule:nonzero;fill:rgb(59.568787%,34.301758%,50.389099%);fill-opacity:1;stroke-width:5;stroke-linecap:round;stroke-linejoin:round;stroke:rgb(0%,0%,0%);stroke-opacity:1;stroke-miterlimit:10;" d="M 633.129352 437.39141 L 1368.9315 293.062793 L 1379.296563 907.300351 " transform="matrix(0.0998697,0,0,-0.0998697,0,199.779826)"/>
<path style="fill-rule:nonzero;fill:rgb(86.326599%,56.443787%,47.801208%);fill-opacity:1;stroke-width:5;stroke-linecap:round;stroke-linejoin:round;stroke:rgb(0%,0%,0%);stroke-opacity:1;stroke-miterlimit:10;" d="M 2015.711444 1196.466058 L 1379.296563 907.300351 L 1368.9315 293.062793 " transform="matrix(0.0998697,0,0,-0.0998697,0,199.779826)"/>
<path style="fill-rule:nonzero;fill:rgb(64.451599%,76.367188%,93.554688%);fill-opacity:1;stroke-width:5;stroke-linecap:round;stroke-linejoin:round;stroke:rgb(0%,0%,0%);stroke-opacity:1;stroke-miterlimit:10;" d="M 581.147582 1044.823227 L 1379.296563 907.300351 L 2015.711444 1196.466058 " transform="matrix(0.0998697,0,0,-0.0998697,0,199.779826)"/>
</g>
</svg>

<svg xmlns="http://www.w3.org/2000/svg" width="316.92" height="266.587" viewBox="0 0 237.69 199.94" version="1.2"><path style="fill-rule:nonzero;fill:#bb7e90;fill-opacity:1;stroke-width:5;stroke-linecap:round;stroke-linejoin:round;stroke:#000;stroke-opacity:1;stroke-miterlimit:10" d="m754.42 1784.537 669.466 58.865-11.226-553.455" transform="matrix(.09987 0 0 -.09987 0 199.78)"/><path style="fill-rule:nonzero;fill:#bb7e90;fill-opacity:1;stroke-width:5;stroke-linecap:round;stroke-linejoin:round;stroke:#000;stroke-opacity:1;stroke-miterlimit:10" d="m1412.66 1289.947-625.932-63.755-32.308 558.345" transform="matrix(.09987 0 0 -.09987 0 199.78)"/><path style="fill-rule:nonzero;fill:#7e4e8d;fill-opacity:1;stroke-width:5;stroke-linecap:round;stroke-linejoin:round;stroke:#000;stroke-opacity:1;stroke-miterlimit:10" d="m1923.951 1040.051-511.29 249.896 11.225 553.455" transform="matrix(.09987 0 0 -.09987 0 199.78)"/><path style="stroke:none;fill-rule:nonzero;fill:#a9bde7;fill-opacity:1" d="M141.082 70.953 78.57 77.32l116.98 62.793"/><path style="fill:none;stroke-width:5;stroke-linecap:round;stroke-linejoin:round;stroke:#000;stroke-opacity:1;stroke-miterlimit:10" d="m1412.66 1289.947-625.932-63.755" transform="matrix(.09987 0 0 -.09987 0 199.78)"/><path style="fill-rule:nonzero;fill:#a9bde7;fill-opacity:1;stroke-width:5;stroke-linecap:round;stroke-linejoin:round;stroke:#000;stroke-opacity:1;stroke-miterlimit:10" d="m1958.058 597.444-34.107 442.607-511.29 249.896" transform="matrix(.09987 0 0 -.09987 0 199.78)"/><path style="fill-rule:nonzero;fill:#f0af86;fill-opacity:1;stroke-width:5;stroke-linecap:round;stroke-linejoin:round;stroke:#000;stroke-opacity:1;stroke-miterlimit:10" d="m354.055 1457.744 400.365 326.793 32.308-558.345" transform="matrix(.09987 0 0 -.09987 0 199.78)"/><path style="fill-rule:nonzero;fill:#f0af86;fill-opacity:1;stroke-width:5;stroke-linecap:round;stroke-linejoin:round;stroke:#000;stroke-opacity:1;stroke-miterlimit:10" d="M786.728 1226.192 417.497 875.15l-63.442 582.595" transform="matrix(.09987 0 0 -.09987 0 199.78)"/><path style="stroke:none;fill-rule:nonzero;fill:#a9bde7;fill-opacity:1" d="M78.57 77.32 41.695 112.38l153.856 27.734"/><path style="fill:none;stroke-width:5;stroke-linecap:round;stroke-linejoin:round;stroke:#000;stroke-opacity:1;stroke-miterlimit:10" d="M786.728 1226.192 417.497 875.15" transform="matrix(.09987 0 0 -.09987 0 199.78)"/><path style="fill-rule:nonzero;fill:#7e4e8d;fill-opacity:1;stroke-width:5;stroke-linecap:round;stroke-linejoin:round;stroke:#000;stroke-opacity:1;stroke-miterlimit:10" d="m1423.886 1843.402 549.426-231.708-49.36-571.643" transform="matrix(.09987 0 0 -.09987 0 199.78)"/><path style="fill-rule:nonzero;fill:#303067;fill-opacity:1;stroke-width:5;stroke-linecap:round;stroke-linejoin:round;stroke:#000;stroke-opacity:1;stroke-miterlimit:10" d="m1958.058 597.444-34.107 442.607 49.361 571.643" transform="matrix(.09987 0 0 -.09987 0 199.78)"/><path style="fill-rule:nonzero;fill:#303067;fill-opacity:1;stroke-width:5;stroke-linecap:round;stroke-linejoin:round;stroke:#000;stroke-opacity:1;stroke-miterlimit:10" d="m1973.312 1611.694 42.4-415.228-57.654-599.022" transform="matrix(.09987 0 0 -.09987 0 199.78)"/><path style="stroke:none;fill-rule:nonzero;fill:#a4c3ef;fill-opacity:1" d="m142.203 15.68-66.86 5.879 125.966 58.73"/><path style="fill:none;stroke-width:5;stroke-linecap:round;stroke-linejoin:round;stroke:#000;stroke-opacity:1;stroke-miterlimit:10" d="m1423.886 1843.402-669.466-58.865" transform="matrix(.09987 0 0 -.09987 0 199.78)"/><path style="fill-rule:nonzero;fill:#a4c3ef;fill-opacity:1;stroke-width:5;stroke-linecap:round;stroke-linejoin:round;stroke:#000;stroke-opacity:1;stroke-miterlimit:10" d="m2015.711 1196.466-42.399 415.228-549.426 231.708" transform="matrix(.09987 0 0 -.09987 0 199.78)"/><path style="stroke:none;fill-rule:nonzero;fill:#a4c3ef;fill-opacity:1" d="M75.344 21.559 35.359 54.195 201.31 80.29"/><path style="fill:none;stroke-width:5;stroke-linecap:round;stroke-linejoin:round;stroke:#000;stroke-opacity:1;stroke-miterlimit:10" d="m754.42 1784.537-400.365-326.793" transform="matrix(.09987 0 0 -.09987 0 199.78)"/><path style="fill-rule:nonzero;fill:#232360;fill-opacity:1;stroke-width:5;stroke-linecap:round;stroke-linejoin:round;stroke:#000;stroke-opacity:1;stroke-miterlimit:10" d="m581.148 1044.823-227.093 412.92 63.442-582.594" transform="matrix(.09987 0 0 -.09987 0 199.78)"/><path style="stroke:none;fill-rule:nonzero;fill:#a9bde7;fill-opacity:1" d="m41.695 112.379 21.535 43.719 132.32-15.985"/><path style="fill:none;stroke-width:5;stroke-linecap:round;stroke-linejoin:round;stroke:#000;stroke-opacity:1;stroke-miterlimit:10" d="M417.497 875.15 633.129 437.39" transform="matrix(.09987 0 0 -.09987 0 199.78)"/><path style="fill-rule:nonzero;fill:#232360;fill-opacity:1;stroke-width:5;stroke-linecap:round;stroke-linejoin:round;stroke:#000;stroke-opacity:1;stroke-miterlimit:10" d="M417.497 875.15 633.129 437.39l-51.981 607.432" transform="matrix(.09987 0 0 -.09987 0 199.78)"/><path style="fill-rule:nonzero;fill:#a9bde7;fill-opacity:1;stroke-width:5;stroke-linecap:round;stroke-linejoin:round;stroke:#000;stroke-opacity:1;stroke-miterlimit:10" d="m633.13 437.391 735.801-144.328 589.127 304.38" transform="matrix(.09987 0 0 -.09987 0 199.78)"/><path style="fill-rule:nonzero;fill:#dc907a;fill-opacity:1;stroke-width:5;stroke-linecap:round;stroke-linejoin:round;stroke:#000;stroke-opacity:1;stroke-miterlimit:10" d="m1368.931 293.063 589.127 304.38 57.653 599.023" transform="matrix(.09987 0 0 -.09987 0 199.78)"/><path style="stroke:none;fill-rule:nonzero;fill:#a4c3ef;fill-opacity:1" d="m35.36 54.195 22.68 41.239 143.269-15.145"/><path style="fill:none;stroke-width:5;stroke-linecap:round;stroke-linejoin:round;stroke:#000;stroke-opacity:1;stroke-miterlimit:10" d="m354.055 1457.744 227.093-412.92" transform="matrix(.09987 0 0 -.09987 0 199.78)"/><path style="fill-rule:nonzero;fill:#985780;fill-opacity:1;stroke-width:5;stroke-linecap:round;stroke-linejoin:round;stroke:#000;stroke-opacity:1;stroke-miterlimit:10" d="m1379.297 907.3-798.15 137.523 51.982-607.432M633.13 437.391l735.801-144.328 10.366 614.237" transform="matrix(.09987 0 0 -.09987 0 199.78)"/><path style="fill-rule:nonzero;fill:#dc907a;fill-opacity:1;stroke-width:5;stroke-linecap:round;stroke-linejoin:round;stroke:#000;stroke-opacity:1;stroke-miterlimit:10" d="M2015.711 1196.466 1379.297 907.3l-10.366-614.237" transform="matrix(.09987 0 0 -.09987 0 199.78)"/><path style="fill-rule:nonzero;fill:#a4c3ef;fill-opacity:1;stroke-width:5;stroke-linecap:round;stroke-linejoin:round;stroke:#000;stroke-opacity:1;stroke-miterlimit:10" d="M581.148 1044.823 1379.297 907.3l636.414 289.166" transform="matrix(.09987 0 0 -.09987 0 199.78)"/></svg>
